static/img/kroki/ae553b8319a074892bda4a224deb0284.svg

<?xml version="1.0" encoding="us-ascii" standalone="no"?><svg xmlns="http://www.w3.org/2000/svg" xmlns:xlink="http://www.w3.org/1999/xlink" contentStyleType="text/css" height="352px" preserveAspectRatio="none" style="width:432px;height:352px;" version="1.1" viewBox="0 0 432 352" width="432px" zoomAndPan="magnify"><defs/><g><!--class kubernetes_deployment--><g id="elem_kubernetes_deployment"><rect codeLine="22" fill="#3D176E" height="39.7891" id="kubernetes_deployment" rx="2.5" ry="2.5" style="stroke:#000D19;stroke-width:0.5;" width="245" x="7" y="106.79"/><ellipse cx="22" cy="126.6845" fill="#ADD1B2" rx="11" ry="11" style="stroke:#181818;stroke-width:1.0;"/><path d="M24.9688,132.3252 Q24.3906,132.622 23.75,132.7627 Q23.1094,132.9189 22.4063,132.9189 Q19.9063,132.9189 18.5781,131.2783 Q17.2656,129.622 17.2656,126.497 Q17.2656,123.372 18.5781,121.7158 Q19.9063,120.0595 22.4063,120.0595 Q23.1094,120.0595 23.75,120.2158 Q24.4063,120.372 24.9688,120.6689 L24.9688,123.3877 Q24.3438,122.8095 23.75,122.5439 Q23.1563,122.2627 22.5313,122.2627 Q21.1875,122.2627 20.5,123.3408 Q19.8125,124.4033 19.8125,126.497 Q19.8125,128.5908 20.5,129.6689 Q21.1875,130.7314 22.5313,130.7314 Q23.1563,130.7314 23.75,130.4658 Q24.3438,130.1845 24.9688,129.6064 L24.9688,132.3252 Z " fill="#000000"/><text fill="#D9B8FF" font-family="Helvetica" font-size="17" lengthAdjust="spacing" textLength="203" x="41" y="132.5698">kubernetes_deployment</text></g><!--class kubernetes_namespace--><g id="elem_kubernetes_namespace"><rect codeLine="24" fill="#3D176E" height="39.7891" id="kubernetes_namespace" rx="2.5" ry="2.5" style="stroke:#000D19;stroke-width:0.5;" width="239" x="186" y="7"/><ellipse cx="201" cy="26.8945" fill="#ADD1B2" rx="11" ry="11" style="stroke:#181818;stroke-width:1.0;"/><path d="M203.9688,32.5352 Q203.3906,32.832 202.75,32.9727 Q202.1094,33.1289 201.4063,33.1289 Q198.9063,33.1289 197.5781,31.4883 Q196.2656,29.832 196.2656,26.707 Q196.2656,23.582 197.5781,21.9258 Q198.9063,20.2695 201.4063,20.2695 Q202.1094,20.2695 202.75,20.4258 Q203.4063,20.582 203.9688,20.8789 L203.9688,23.5977 Q203.3438,23.0195 202.75,22.7539 Q202.1563,22.4727 201.5313,22.4727 Q200.1875,22.4727 199.5,23.5508 Q198.8125,24.6133 198.8125,26.707 Q198.8125,28.8008 199.5,29.8789 Q200.1875,30.9414 201.5313,30.9414 Q202.1563,30.9414 202.75,30.6758 Q203.3438,30.3945 203.9688,29.8164 L203.9688,32.5352 Z " fill="#000000"/><text fill="#D9B8FF" font-family="Helvetica" font-size="17" lengthAdjust="spacing" textLength="197" x="220" y="32.7798">kubernetes_namespace</text></g><!--class kubernetes_pod--><g id="elem_kubernetes_pod"><rect codeLine="26" fill="#3D176E" height="39.7891" id="kubernetes_pod" rx="2.5" ry="2.5" style="stroke:#000D19;stroke-width:0.5;" width="175" x="204" y="306.37"/><ellipse cx="219" cy="326.2645" fill="#ADD1B2" rx="11" ry="11" style="stroke:#181818;stroke-width:1.0;"/><path d="M221.9688,331.9052 Q221.3906,332.202 220.75,332.3427 Q220.1094,332.4989 219.4063,332.4989 Q216.9063,332.4989 215.5781,330.8583 Q214.2656,329.202 214.2656,326.077 Q214.2656,322.952 215.5781,321.2958 Q216.9063,319.6395 219.4063,319.6395 Q220.1094,319.6395 220.75,319.7958 Q221.4063,319.952 221.9688,320.2489 L221.9688,322.9677 Q221.3438,322.3895 220.75,322.1239 Q220.1563,321.8427 219.5313,321.8427 Q218.1875,321.8427 217.5,322.9208 Q216.8125,323.9833 216.8125,326.077 Q216.8125,328.1708 217.5,329.2489 Q218.1875,330.3114 219.5313,330.3114 Q220.1563,330.3114 220.75,330.0458 Q221.3438,329.7645 221.9688,329.1864 L221.9688,331.9052 Z " fill="#000000"/><text fill="#D9B8FF" font-family="Helvetica" font-size="17" lengthAdjust="spacing" textLength="133" x="238" y="332.1498">kubernetes_pod</text></g><!--class kubernetes_replica_set--><g id="elem_kubernetes_replica_set"><rect codeLine="28" fill="#3D176E" height="39.7891" id="kubernetes_replica_set" rx="2.5" ry="2.5" style="stroke:#000D19;stroke-width:0.5;" width="234" x="89.5" y="206.58"/><ellipse cx="104.5" cy="226.4745" fill="#ADD1B2" rx="11" ry="11" style="stroke:#181818;stroke-width:1.0;"/><path d="M107.4688,232.1152 Q106.8906,232.412 106.25,232.5527 Q105.6094,232.7089 104.9063,232.7089 Q102.4063,232.7089 101.0781,231.0683 Q99.7656,229.412 99.7656,226.287 Q99.7656,223.162 101.0781,221.5058 Q102.4063,219.8495 104.9063,219.8495 Q105.6094,219.8495 106.25,220.0058 Q106.9063,220.162 107.4688,220.4589 L107.4688,223.1777 Q106.8438,222.5995 106.25,222.3339 Q105.6563,222.0527 105.0313,222.0527 Q103.6875,222.0527 103,223.1308 Q102.3125,224.1933 102.3125,226.287 Q102.3125,228.3808 103,229.4589 Q103.6875,230.5214 105.0313,230.5214 Q105.6563,230.5214 106.25,230.2558 Q106.8438,229.9745 107.4688,229.3964 L107.4688,232.1152 Z " fill="#000000"/><text fill="#D9B8FF" font-family="Helvetica" font-size="17" lengthAdjust="spacing" textLength="192" x="123.5" y="232.3598">kubernetes_replica_set</text></g><!--link kubernetes_deployment to kubernetes_replica_set--><g id="link_kubernetes_deployment_kubernetes_replica_set"><path codeLine="30" d="M144.71,147.01 C157.05,162.68 174.5,184.84 187.71,201.62 " fill="none" id="kubernetes_deployment-to-kubernetes_replica_set" style="stroke:#1A83AF;stroke-width:2.0;"/><polygon fill="#1A83AF" points="191.32,205.2,188.9064,195.6515,188.2315,201.2679,182.6151,200.593,191.32,205.2" style="stroke:#1A83AF;stroke-width:2.0;"/></g><!--link kubernetes_namespace to kubernetes_deployment--><g id="link_kubernetes_namespace_kubernetes_deployment"><path codeLine="31" d="M270.73,47.22 C241.56,63.42 199.9,86.57 169.38,103.53 " fill="none" id="kubernetes_namespace-to-kubernetes_deployment" style="stroke:#1A83AF;stroke-width:2.0;"/><polygon fill="#1A83AF" points="165.2,106.41,175.01,105.5358,169.5708,103.9818,171.1248,98.5426,165.2,106.41" style="stroke:#1A83AF;stroke-width:2.0;"/></g><!--link kubernetes_namespace to kubernetes_pod--><g id="link_kubernetes_namespace_kubernetes_pod"><path codeLine="32" d="M314.34,47.23 C330.73,85.76 362.34,174.57 341.5,246.37 C335.6,266.69 322.72,286.8 311.52,301.63 " fill="none" id="kubernetes_namespace-to-kubernetes_pod" style="stroke:#1A83AF;stroke-width:2.0;"/><polygon fill="#1A83AF" points="308.1,305.05,316.7571,300.3537,311.1479,301.0863,310.4152,295.4771,308.1,305.05" style="stroke:#1A83AF;stroke-width:2.0;"/></g><!--link kubernetes_namespace to kubernetes_replica_set--><g id="link_kubernetes_namespace_kubernetes_replica_set"><path codeLine="33" d="M301.98,47.26 C297.06,71.5 286.74,113.8 269.5,146.58 C258.85,166.83 242.69,186.93 229.4,201.78 " fill="none" id="kubernetes_namespace-to-kubernetes_replica_set" style="stroke:#1A83AF;stroke-width:2.0;"/><polygon fill="#1A83AF" points="226.38,205.21,235.39,201.2326,229.7398,201.5071,229.4653,195.8569,226.38,205.21" style="stroke:#1A83AF;stroke-width:2.0;"/></g><!--link kubernetes_replica_set to kubernetes_pod--><g id="link_kubernetes_replica_set_kubernetes_pod"><path codeLine="34" d="M223.29,246.8 C237.03,262.6 256.51,285.01 271.13,301.84 " fill="none" id="kubernetes_replica_set-to-kubernetes_pod" style="stroke:#1A83AF;stroke-width:2.0;"/><polygon fill="#1A83AF" points="274.74,304.99,271.844,295.5765,271.4556,301.22,265.8121,300.8316,274.74,304.99" style="stroke:#1A83AF;stroke-width:2.0;"/></g><!--SRC=[bPBBQiCm44Nt_Wg1rm6xfhMpARY1q6v2QReh9IZMA16s9JEI6zpIVwzIzw7u5RATUsRctc7sWW61iZ8DAQ7S0cfFvq9M56b9KaHrMAX28V4vfpoAk-9IINCMMD4Io3qKRs14Hhl4yrvakGIjoPKZtT4itw6g9Ml76wHIMmcaSQX5GRLEZK6nhGquPjXyct3U9Rj3_OY5yGtqC8KCy0S9We25yovoTjLaxZzYBTw1XExHLif0psPlnJSrwV98E2PxGN_rKO-Fb34XT-JQgJsrdb02djJNUyhKuKXpMcXtZJQ0e4nJmQAN2kO9u_4W_306PyVBaRosZoh1WDumg0hLbFOjo8VtsTUbpMV_9eDXkL9iM40xrnvaew4TFBnozkA7QHAbozVPxKYtDsXchF5_zcLzDiTb3ICEtTWJkxu0]--></g></svg>

<svg xmlns="http://www.w3.org/2000/svg" width="432" height="352" preserveAspectRatio="none" style="width:432px;height:352px"><rect width="245" height="39.789" x="7" y="106.79" fill="#3D176E" rx="2.5" ry="2.5" style="stroke:#000d19;stroke-width:.5"/><circle cx="22" cy="126.684" r="11" fill="#ADD1B2" style="stroke:#181818;stroke-width:1"/><path d="M24.969 132.325q-.578.297-1.219.438-.64.156-1.344.156-2.5 0-3.828-1.64-1.312-1.657-1.312-4.782t1.312-4.781q1.328-1.656 3.828-1.656.703 0 1.344.156.656.156 1.219.453v2.719q-.625-.579-1.219-.844-.594-.281-1.219-.281-1.343 0-2.031 1.078-.688 1.062-.688 3.156 0 2.094.688 3.172.688 1.062 2.031 1.062.625 0 1.219-.265.594-.281 1.219-.86v2.72Z"/><text x="41" y="132.57" fill="#D9B8FF" font-family="Helvetica" font-size="17" textLength="203">kubernetes_deployment</text><rect width="239" height="39.789" x="186" y="7" fill="#3D176E" rx="2.5" ry="2.5" style="stroke:#000d19;stroke-width:.5"/><circle cx="201" cy="26.895" r="11" fill="#ADD1B2" style="stroke:#181818;stroke-width:1"/><path d="M203.969 32.535q-.578.297-1.219.438-.64.156-1.344.156-2.5 0-3.828-1.64-1.312-1.657-1.312-4.782t1.312-4.781q1.328-1.656 3.828-1.656.703 0 1.344.156.656.156 1.219.453v2.719q-.625-.578-1.219-.844-.594-.281-1.219-.281-1.344 0-2.031 1.078-.688 1.062-.688 3.156 0 2.094.688 3.172.688 1.062 2.031 1.062.625 0 1.219-.265.594-.281 1.219-.86v2.72Z"/><text x="220" y="32.78" fill="#D9B8FF" font-family="Helvetica" font-size="17" textLength="197">kubernetes_namespace</text><rect width="175" height="39.789" x="204" y="306.37" fill="#3D176E" rx="2.5" ry="2.5" style="stroke:#000d19;stroke-width:.5"/><circle cx="219" cy="326.264" r="11" fill="#ADD1B2" style="stroke:#181818;stroke-width:1"/><path d="M221.969 331.905q-.578.297-1.219.438-.64.156-1.344.156-2.5 0-3.828-1.64-1.312-1.657-1.312-4.782t1.312-4.781q1.328-1.656 3.828-1.656.703 0 1.344.156.656.156 1.219.453v2.719q-.625-.579-1.219-.844-.594-.281-1.219-.281-1.344 0-2.031 1.078-.688 1.062-.688 3.156 0 2.094.688 3.172.688 1.062 2.031 1.062.625 0 1.219-.265.594-.281 1.219-.86v2.72Z"/><text x="238" y="332.15" fill="#D9B8FF" font-family="Helvetica" font-size="17" textLength="133">kubernetes_pod</text><rect width="234" height="39.789" x="89.5" y="206.58" fill="#3D176E" rx="2.5" ry="2.5" style="stroke:#000d19;stroke-width:.5"/><circle cx="104.5" cy="226.475" r="11" fill="#ADD1B2" style="stroke:#181818;stroke-width:1"/><path d="M107.469 232.115q-.578.297-1.219.438-.64.156-1.344.156-2.5 0-3.828-1.64-1.312-1.657-1.312-4.782t1.312-4.781q1.328-1.656 3.828-1.656.703 0 1.344.156.656.156 1.219.453v2.719q-.625-.578-1.219-.844-.594-.281-1.219-.281-1.344 0-2.031 1.078-.688 1.062-.688 3.156 0 2.094.688 3.172.688 1.062 2.031 1.062.625 0 1.219-.265.594-.281 1.219-.86v2.72Z"/><text x="123.5" y="232.36" fill="#D9B8FF" font-family="Helvetica" font-size="17" textLength="192">kubernetes_replica_set</text><path fill="none" d="M144.71 147.01c12.34 15.67 29.79 37.83 43 54.61" style="stroke:#1a83af;stroke-width:2"/><path fill="#1A83AF" d="m191.32 205.2-2.414-9.548-.674 5.616-5.617-.675 8.705 4.607z" style="stroke:#1a83af;stroke-width:2"/><path fill="none" d="M270.73 47.22c-29.17 16.2-70.83 39.35-101.35 56.31" style="stroke:#1a83af;stroke-width:2"/><path fill="#1A83AF" d="m165.2 106.41 9.81-.874-5.44-1.554 1.555-5.44-5.925 7.868z" style="stroke:#1a83af;stroke-width:2"/><path fill="none" d="M314.34 47.23c16.39 38.53 48 127.34 27.16 199.14-5.9 20.32-18.78 40.43-29.98 55.26" style="stroke:#1a83af;stroke-width:2"/><path fill="#1A83AF" d="m308.1 305.05 8.657-4.696-5.61.732-.732-5.609-2.315 9.573z" style="stroke:#1a83af;stroke-width:2"/><path fill="none" d="M301.98 47.26c-4.92 24.24-15.24 66.54-32.48 99.32-10.65 20.25-26.81 40.35-40.1 55.2" style="stroke:#1a83af;stroke-width:2"/><path fill="#1A83AF" d="m226.38 205.21 9.01-3.977-5.65.274-.275-5.65-3.085 9.353z" style="stroke:#1a83af;stroke-width:2"/><path fill="none" d="M223.29 246.8c13.74 15.8 33.22 38.21 47.84 55.04" style="stroke:#1a83af;stroke-width:2"/><path fill="#1A83AF" d="m274.74 304.99-2.896-9.413-.388 5.643-5.644-.388 8.928 4.158z" style="stroke:#1a83af;stroke-width:2"/></svg>
